source/img/ivon-ig.svg

<svg width="44" height="44" viewBox="0 0 44 44" fill="none" xmlns="http://www.w3.org/2000/svg">
<rect width="44" height="44" rx="22" fill="#CFDCE3"/>
<path fill-rule="evenodd" clip-rule="evenodd" d="M21.9993 11.272C25.6399 11.272 26.0707 11.2861 27.5087 11.3517C28.8378 11.4123 29.5598 11.6344 30.0404 11.8212C30.6333 12.0397 31.1696 12.3886 31.6098 12.8422C32.0631 13.2827 32.4117 13.8195 32.63 14.4128C32.8167 14.8938 33.0386 15.6163 33.0992 16.9465C33.1647 18.3855 33.1788 18.8166 33.1788 22.46C33.1788 26.1034 33.1647 26.5345 33.0992 27.9736C33.0386 29.3038 32.8167 30.0263 32.63 30.5072C32.4029 31.0955 32.0554 31.6298 31.6098 32.0757C31.1642 32.5217 30.6304 32.8694 30.0425 33.0967C29.562 33.2835 28.84 33.5056 27.5108 33.5662C26.0734 33.6318 25.6421 33.6459 22.0014 33.6459C18.3608 33.6459 17.9295 33.6318 16.4921 33.5662C15.1629 33.5056 14.4409 33.2835 13.9604 33.0967C13.3675 32.8782 12.8311 32.5293 12.3909 32.0757C11.9377 31.6352 11.5891 31.0984 11.3707 30.5051C11.184 30.0241 10.9621 29.3016 10.9015 27.9714C10.836 26.5324 10.822 26.1013 10.822 22.4579C10.822 18.8145 10.836 18.3834 10.9015 16.9443C10.9621 15.6141 11.184 14.8916 11.3707 14.4107C11.5891 13.8173 11.9377 13.2806 12.3909 12.84C12.8311 12.3864 13.3675 12.0375 13.9604 11.8191C14.4409 11.6322 15.1629 11.4102 16.4921 11.3495C17.93 11.284 18.3608 11.2699 22.0014 11.2699L21.9993 11.272ZM22.0014 8.81152C18.2986 8.81152 17.8342 8.82723 16.38 8.89385C14.9259 8.96047 13.9355 9.19282 13.0696 9.5297C12.1596 9.8725 11.3352 10.4096 10.6537 11.1036C9.96017 11.7856 9.42349 12.6107 9.08094 13.5213C8.74432 14.3879 8.51377 15.3812 8.44774 16.8333C8.38171 18.2853 8.36548 18.7522 8.36548 22.4579C8.36548 26.1635 8.38117 26.6282 8.44774 28.0835C8.51431 29.5388 8.74432 30.5278 9.08094 31.3944C9.42363 32.3047 9.9603 33.1293 10.6537 33.811C11.3349 34.5055 12.1594 35.0428 13.0696 35.3855C13.9355 35.7229 14.928 35.9536 16.379 36.0197C17.8299 36.0858 18.2975 36.1021 22.0004 36.1021C25.7032 36.1021 26.1676 36.0863 27.6218 36.0197C29.076 35.9531 30.0631 35.7229 30.929 35.3855C31.835 35.0352 32.6578 34.4992 33.3446 33.8118C34.0314 33.1245 34.567 32.3011 34.9171 31.3944C35.2542 30.5278 35.4848 29.5345 35.5508 28.0825C35.6168 26.6304 35.6331 26.1625 35.6331 22.4568C35.6331 18.7511 35.6174 18.2864 35.5508 16.8311C35.4843 15.3758 35.2542 14.3879 34.9171 13.5213C34.5748 12.611 34.0383 11.7863 33.3449 11.1047C32.6635 10.4103 31.8391 9.87282 30.929 9.5297C30.0631 9.19282 29.0705 8.96209 27.6196 8.89601C26.1687 8.82994 25.7021 8.81369 21.9993 8.81369L22.0014 8.81152ZM22.0013 15.451C20.6166 15.451 19.2631 15.862 18.1118 16.6318C16.9605 17.4017 16.0632 18.4959 15.5333 19.7761C15.0034 21.0563 14.8648 22.465 15.1349 23.8241C15.405 25.1832 16.0718 26.4316 17.0509 27.4114C18.03 28.3913 19.2774 29.0585 20.6355 29.3289C21.9935 29.5992 23.4012 29.4605 24.6804 28.9302C25.9597 28.3999 27.0531 27.5019 27.8223 26.3497C28.5916 25.1976 29.0022 23.843 29.0022 22.4573C29.0023 21.5372 28.8212 20.6261 28.4694 19.776C28.1176 18.926 27.6019 18.1536 26.9518 17.503C26.3017 16.8524 25.5299 16.3363 24.6805 15.9842C23.8311 15.6322 22.9207 15.451 22.0013 15.451ZM22.0013 27.0068C21.1022 27.0068 20.2232 26.7399 19.4756 26.24C18.728 25.7401 18.1454 25.0296 17.8013 24.1983C17.4572 23.367 17.3672 22.4522 17.5426 21.5697C17.718 20.6872 18.151 19.8766 18.7867 19.2403C19.4225 18.604 20.2325 18.1707 21.1144 17.9952C21.9962 17.8197 22.9103 17.9097 23.741 18.2541C24.5717 18.5984 25.2817 19.1815 25.7812 19.9297C26.2807 20.6779 26.5473 21.5575 26.5473 22.4573C26.5473 23.6639 26.0684 24.8211 25.2158 25.6743C24.3633 26.5274 23.207 27.0068 22.0013 27.0068ZM30.9146 15.1748C30.9146 16.0791 30.1822 16.8123 29.2786 16.8123C28.3751 16.8123 27.6426 16.0791 27.6426 15.1748C27.6426 14.2705 28.3751 13.5374 29.2786 13.5374C30.1822 13.5374 30.9146 14.2705 30.9146 15.1748Z" fill="white"/>
</svg>

<svg width="44" height="44" viewBox="0 0 44 44" fill="none" xmlns="http://www.w3.org/2000/svg"><rect width="44" height="44" rx="22" fill="#CFDCE3"/><path fill-rule="evenodd" clip-rule="evenodd" d="M22 11.272c3.64 0 4.07.014 5.509.08 1.329.06 2.05.282 2.531.47a4.22 4.22 0 011.57 1.02c.453.44.802.977 1.02 1.57.187.482.409 1.204.47 2.534.065 1.44.079 1.87.079 5.514 0 3.643-.014 4.075-.08 5.514-.06 1.33-.282 2.052-.469 2.533a4.523 4.523 0 01-2.588 2.59c-.48.186-1.202.409-2.531.47-1.438.065-1.869.079-5.51.079-3.64 0-4.072-.014-5.509-.08-1.33-.06-2.051-.283-2.532-.47a4.221 4.221 0 01-1.57-1.02 4.226 4.226 0 01-1.02-1.57c-.186-.482-.408-1.204-.468-2.535-.066-1.439-.08-1.87-.08-5.513s.014-4.075.08-5.514c.06-1.33.282-2.052.469-2.533a4.227 4.227 0 011.02-1.571 4.22 4.22 0 011.57-1.02c.48-.188 1.202-.41 2.531-.47 1.438-.066 1.869-.08 5.51-.08l-.003.002zm0-2.46c-3.702 0-4.167.015-5.621.082-1.454.066-2.444.299-3.31.636-.91.343-1.735.88-2.416 1.574A6.699 6.699 0 009.08 13.52c-.337.867-.567 1.86-.633 3.312-.066 1.452-.083 1.92-.083 5.625 0 3.706.016 4.17.083 5.626.066 1.455.296 2.444.633 3.31.343.91.88 1.735 1.573 2.417a6.682 6.682 0 002.416 1.575c.865.337 1.858.568 3.309.634 1.45.066 1.918.082 5.621.082 3.703 0 4.168-.016 5.622-.082 1.454-.067 2.441-.297 3.307-.635a6.966 6.966 0 003.988-3.99c.337-.867.568-1.86.634-3.313.066-1.452.082-1.92.082-5.625 0-3.706-.016-4.17-.082-5.626-.067-1.455-.297-2.443-.634-3.31a6.69 6.69 0 00-1.572-2.416 6.693 6.693 0 00-2.416-1.575c-.866-.337-1.858-.568-3.31-.634-1.45-.066-1.917-.082-5.62-.082L22 8.811zm0 6.639a6.998 6.998 0 00-6.468 4.325 7.011 7.011 0 001.518 7.635 7 7 0 0011.951-4.954 7.01 7.01 0 00-4.322-6.473A6.998 6.998 0 0022 15.451zm0 11.556a4.544 4.544 0 01-4.2-2.809 4.553 4.553 0 013.313-6.203 4.543 4.543 0 014.667 1.935 4.552 4.552 0 01-.565 5.744A4.544 4.544 0 0122 27.007zm8.914-11.832a1.637 1.637 0 11-3.274.001 1.637 1.637 0 013.274-.001z" fill="#fff"/></svg>
